src/asset/120/launch.svg

<svg width="120" height="120" viewBox="0 0 120 120" fill="none" xmlns="http://www.w3.org/2000/svg">
    <path d="M95.1231 25C95.1231 25 68.867 24.9316 48.3973 45.3376C47.4595 46.2724 46.6133 47.2984 45.8586 48.3472C42.222 48.0736 36.6872 48.1648 33.8512 50.992C27.2185 57.604 25 68.6392 25 68.6392L39.6147 66.5644V71.5804L48.3744 80.3128H53.3832L51.3019 94.882C51.3019 94.882 62.3716 92.6704 69.0042 86.0584C71.8402 83.2312 71.9546 77.7136 71.6573 74.0884C72.7322 73.336 73.7386 72.5152 74.6763 71.5576C95.1689 51.1744 95.1231 25 95.1231 25ZM65.9395 48.256C65.9395 45.0412 68.5468 42.4192 71.7945 42.4192C75.0193 42.4192 77.6495 45.0184 77.6495 48.256C77.6495 51.4708 75.0422 54.0928 71.7945 54.0928C68.5697 54.0928 65.9395 51.4936 65.9395 48.256Z" fill="url(#paint0_linear)"/>
    <path d="M29.3229 94.1522C28.2708 94.1522 27.5846 94.1066 27.4703 94.0838L25.8922 93.9698L25.7778 92.3966C25.755 91.9406 25.0459 81.3614 30.1691 76.2542C31.3355 75.0914 32.8222 74.2478 34.4918 73.8146L35.4981 73.541L46.3848 84.3938L46.1103 85.397C45.6758 87.0386 44.8295 88.5434 43.6631 89.7062C39.7521 93.6506 32.6849 94.1522 29.3229 94.1522ZM34.4918 77.6906C33.8514 77.9642 33.2796 78.3518 32.7993 78.8534C30.0547 81.5894 29.4372 87.221 29.4372 90.5042C32.2961 90.5042 38.174 90.0938 41.1244 87.1526C41.6047 86.6738 41.9935 86.1038 42.2908 85.4654L34.4918 77.6906Z" fill="url(#paint1_linear)"/>
    <defs>
        <linearGradient id="paint0_linear" x1="25" y1="25" x2="94.8816" y2="95.1227" gradientUnits="userSpaceOnUse">
            <stop stop-color="#FFBE41"/>
            <stop offset="1" stop-color="#FF9141"/>
        </linearGradient>
        <linearGradient id="paint1_linear" x1="25.7324" y1="73.541" x2="46.3436" y2="94.1933" gradientUnits="userSpaceOnUse">
            <stop stop-color="#78A0FF"/>
            <stop offset="1" stop-color="#5078E6"/>
        </linearGradient>
    </defs>
</svg>

<svg width="120" height="120" fill="none" xmlns="http://www.w3.org/2000/svg"><path d="M95.123 25s-26.256-.068-46.726 20.338a24.248 24.248 0 00-2.538 3.01c-3.637-.274-9.172-.183-12.008 2.644C27.218 57.604 25 68.639 25 68.639l14.615-2.075v5.016l8.76 8.733h5.008l-2.081 14.569s11.07-2.212 17.702-8.824c2.836-2.827 2.95-8.344 2.653-11.97a21.126 21.126 0 003.02-2.53C95.168 51.174 95.122 25 95.122 25zM65.94 48.256a5.843 5.843 0 015.856-5.837c3.224 0 5.855 2.6 5.855 5.837a5.843 5.843 0 01-5.856 5.837c-3.224 0-5.855-2.6-5.855-5.837z" fill="url(#paint0_linear)"/><path d="M29.323 94.152c-1.053 0-1.739-.045-1.853-.068l-1.578-.114-.114-1.573c-.023-.456-.732-11.035 4.39-16.143a9.468 9.468 0 014.324-2.44l1.006-.273 10.887 10.853-.275 1.003c-.434 1.642-1.28 3.146-2.447 4.31-3.911 3.944-10.978 4.445-14.34 4.445zm5.169-16.461a5.098 5.098 0 00-1.693 1.162c-2.744 2.737-3.362 8.368-3.362 11.651 2.859 0 8.737-.41 11.687-3.351.48-.48.87-1.05 1.167-1.688l-7.8-7.774z" fill="url(#paint1_linear)"/><defs><linearGradient id="paint0_linear" x1="95.123" y1="25" x2="95.123" y2="94.882" gradientUnits="userSpaceOnUse"><stop stop-color="#4070FF"/><stop offset="1" stop-color="#365FD9"/></linearGradient><linearGradient id="paint1_linear" x1="46.385" y1="73.541" x2="46.385" y2="94.152" gradientUnits="userSpaceOnUse"><stop stop-color="#FFA526"/><stop offset="1" stop-color="#FF860D"/></linearGradient></defs></svg>
